assets/Falafel/Flat/falafel_flat.svg

<svg width="32" height="32" viewBox="0 0 32 32" fill="none" xmlns="http://www.w3.org/2000/svg">
<path d="M23.09 13.665C23.78 13.515 24.49 13.665 25.06 14.085C25.34 14.295 25.67 14.435 26.01 14.505C26.7 14.645 27.29 15.085 27.64 15.685C27.81 15.985 28.05 16.255 28.33 16.455C28.9 16.865 29.27 17.505 29.34 18.205C29.38 18.555 29.48 18.885 29.66 19.195C30.01 19.805 30.09 20.535 29.87 21.195C29.76 21.525 29.72 21.875 29.76 22.225C29.84 22.925 29.61 23.625 29.14 24.145C28.91 24.405 28.73 24.715 28.62 25.045C28.4 25.715 27.91 26.255 27.27 26.545C26.95 26.685 26.66 26.895 26.43 27.155C25.96 27.675 25.29 27.975 24.59 27.975C24.24 27.975 23.89 28.045 23.58 28.195C22.94 28.485 22.21 28.485 21.56 28.195C21.24 28.055 20.89 27.975 20.55 27.975C19.85 27.975 19.18 27.675 18.71 27.155C18.48 26.895 18.19 26.685 17.87 26.545C17.23 26.265 16.74 25.715 16.52 25.045C16.41 24.715 16.24 24.405 16 24.145C15.53 23.625 15.3 22.925 15.38 22.225C15.42 21.875 15.38 21.525 15.27 21.195C15.05 20.525 15.13 19.795 15.48 19.195C15.66 18.895 15.77 18.555 15.8 18.205C15.87 17.505 16.24 16.875 16.81 16.455C17.09 16.255 17.33 15.985 17.5 15.685C17.85 15.075 18.44 14.645 19.13 14.505C19.47 14.435 19.8 14.285 20.08 14.085C20.65 13.675 21.36 13.515 22.05 13.665C22.4 13.735 22.75 13.735 23.09 13.665Z" fill="#402A32"/>
<path d="M24.5093 13.779C24.3953 14.0158 24.2472 14.2372 24.0681 14.4354C23.8094 14.7277 23.607 15.0763 23.4833 15.4474C23.2359 16.2008 22.6849 16.8081 21.9652 17.1342C21.6054 17.2916 21.2792 17.5278 21.0206 17.8202C20.4921 18.4049 19.7387 18.7423 18.9515 18.7423C18.6454 18.7423 18.3394 18.7899 18.0544 18.8904C18.4804 19.6331 18.5776 20.5218 18.3098 21.3253C18.1758 21.7271 18.1271 22.1534 18.1758 22.5796C18.2733 23.432 17.9932 24.2845 17.4208 24.9177C17.2015 25.1657 17.0195 25.4509 16.8866 25.7559C16.729 25.5424 16.6046 25.3026 16.52 25.045C16.41 24.715 16.24 24.405 16 24.145C15.53 23.625 15.3 22.925 15.38 22.225C15.42 21.875 15.38 21.525 15.27 21.195C15.05 20.525 15.13 19.795 15.48 19.195C15.66 18.895 15.77 18.555 15.8 18.205C15.87 17.505 16.24 16.875 16.81 16.455C17.09 16.255 17.33 15.985 17.5 15.685C17.85 15.075 18.44 14.645 19.13 14.505C19.47 14.435 19.8 14.285 20.08 14.085C20.65 13.675 21.36 13.515 22.05 13.665C22.4 13.735 22.75 13.735 23.09 13.665C23.5715 13.5603 24.0627 13.6017 24.5093 13.779Z" fill="#212121"/>
<path d="M19.1701 3.98503C18.6001 3.56503 17.8901 3.41503 17.2001 3.56503C16.8601 3.63503 16.5101 3.63503 16.1601 3.56503C15.4701 3.41503 14.7601 3.57503 14.1901 3.98503C13.9101 4.18503 13.5801 4.33503 13.2401 4.40503C12.5501 4.54503 11.9601 4.97503 11.6101 5.58503C11.4401 5.88503 11.2001 6.15503 10.9201 6.35503C10.3501 6.77503 9.98009 7.40503 9.91009 8.10503C9.88009 8.45503 9.77009 8.79503 9.59009 9.09503C9.24009 9.69503 9.16009 10.425 9.38009 11.095C9.49009 11.425 9.53009 11.775 9.49009 12.125C9.42371 12.7058 9.57074 13.2866 9.8912 13.7646C9.56658 13.8249 9.23333 13.8217 8.90008 13.755C8.21008 13.605 7.50008 13.765 6.93008 14.175C6.65008 14.375 6.32008 14.525 5.98008 14.595C5.29008 14.735 4.70008 15.165 4.35008 15.775C4.18008 16.075 3.94008 16.345 3.66008 16.545C3.09008 16.965 2.72008 17.595 2.65008 18.295C2.62008 18.645 2.51008 18.985 2.33008 19.285C1.98008 19.885 1.90008 20.615 2.12008 21.285C2.23008 21.615 2.27008 21.965 2.23008 22.315C2.15008 23.015 2.38008 23.715 2.85008 24.235C3.09008 24.495 3.26008 24.805 3.37008 25.135C3.59008 25.805 4.08008 26.355 4.72008 26.635C5.04008 26.775 5.33008 26.985 5.56008 27.245C6.03008 27.765 6.70008 28.065 7.40008 28.065C7.74008 28.065 8.09008 28.145 8.41008 28.285C9.06008 28.575 9.79008 28.575 10.4301 28.285C10.7401 28.135 11.0901 28.065 11.4401 28.065C12.1401 28.065 12.8101 27.765 13.2801 27.245C13.5101 26.985 13.8001 26.775 14.1201 26.635C14.7601 26.345 15.2501 25.805 15.4701 25.135C15.5801 24.805 15.7601 24.495 15.9901 24.235C16.4601 23.715 16.6901 23.015 16.6101 22.315C16.5701 21.965 16.6101 21.615 16.7201 21.285C16.9401 20.625 16.8601 19.895 16.5101 19.285C16.3301 18.975 16.2301 18.645 16.1901 18.295C16.189 18.2839 16.1878 18.2727 16.1865 18.2616C16.691 18.3657 17.2153 18.3102 17.6901 18.095C18.0001 17.945 18.3501 17.875 18.7001 17.875C19.4001 17.875 20.0701 17.575 20.5401 17.055C20.7701 16.795 21.0601 16.585 21.3801 16.445C22.0201 16.155 22.5101 15.615 22.7301 14.945C22.8401 14.615 23.0201 14.305 23.2501 14.045C23.7201 13.525 23.9501 12.825 23.8701 12.125C23.8301 11.775 23.8701 11.425 23.9801 11.095C24.2001 10.435 24.1201 9.70503 23.7701 9.09503C23.5901 8.78503 23.4901 8.45503 23.4501 8.10503C23.3801 7.40503 23.0101 6.76503 22.4401 6.35503C22.1601 6.15503 21.9201 5.88503 21.7501 5.58503C21.4001 4.98503 20.8101 4.54503 20.1201 4.40503C19.7801 4.33503 19.4501 4.19503 19.1701 3.98503Z" fill="#6D4534"/>
<path d="M16.1865 18.2617C16.5034 18.327 16.8281 18.3294 17.1435 18.2688C17.1177 18.1559 17.0985 18.041 17.0851 17.9241C17.0059 17.1315 16.5869 16.4069 15.9416 15.9427C15.6245 15.7162 15.3528 15.4105 15.1603 15.0709C14.764 14.3915 14.096 13.8934 13.3148 13.7348C12.9298 13.6556 12.5562 13.4971 12.2392 13.2593C11.5938 12.7838 10.7899 12.6139 10.0087 12.7838C9.84583 12.8173 9.68094 12.8366 9.51489 12.8418C9.57573 13.1708 9.70378 13.4853 9.89106 13.7646C9.90742 13.7616 9.92376 13.7584 9.94008 13.755C10.6301 13.605 11.3401 13.755 11.9101 14.175C12.1901 14.385 12.5201 14.525 12.8601 14.595C13.5501 14.735 14.1401 15.175 14.4901 15.775C14.6601 16.075 14.9001 16.345 15.1801 16.545C15.741 16.9485 16.1083 17.5747 16.1865 18.2617Z" fill="#402A32"/>
<path d="M8.27009 15.345C8.73009 15.245 9.20009 15.345 9.58009 15.625C9.77009 15.765 9.98009 15.855 10.2101 15.905C10.6701 16.005 11.0601 16.285 11.2901 16.695C11.4101 16.895 11.5601 17.075 11.7501 17.205C12.1301 17.475 12.3701 17.895 12.4201 18.365C12.4401 18.595 12.5201 18.815 12.6301 19.025C12.8601 19.425 12.9201 19.915 12.7701 20.355C12.7001 20.575 12.6701 20.805 12.7001 21.045C12.7501 21.505 12.6001 21.975 12.2901 22.315C12.1301 22.485 12.0201 22.695 11.9501 22.915C11.8101 23.355 11.4801 23.725 11.0501 23.905C10.8401 23.995 10.6501 24.135 10.4901 24.305C10.1801 24.655 9.73009 24.855 9.27009 24.845C9.04009 24.845 8.81009 24.895 8.60009 24.985C8.17009 25.175 7.69009 25.175 7.26009 24.985C7.05009 24.885 6.82009 24.845 6.59009 24.845C6.12009 24.845 5.68009 24.645 5.37009 24.305C5.22009 24.135 5.03009 23.995 4.81009 23.905C4.38009 23.715 4.06009 23.355 3.91009 22.915C3.84009 22.695 3.72009 22.495 3.57009 22.315C3.26009 21.965 3.11009 21.505 3.16009 21.045C3.18009 20.815 3.16009 20.585 3.09009 20.355C2.94009 19.915 3.00009 19.425 3.23009 19.025C3.35009 18.825 3.42009 18.605 3.44009 18.365C3.49009 17.905 3.73009 17.475 4.11009 17.205C4.30009 17.065 4.46009 16.895 4.57009 16.695C4.80009 16.295 5.20009 16.005 5.65009 15.905C5.88009 15.855 6.09009 15.765 6.28009 15.625C6.66009 15.345 7.13009 15.245 7.59009 15.345C7.81009 15.395 8.05009 15.395 8.27009 15.345Z" fill="#C3EF3C"/>
</svg>

<svg xmlns="http://www.w3.org/2000/svg" width="32" height="32" fill="none"><path fill="#402A32" d="M23.09 13.665c.69-.15 1.4 0 1.97.42.28.21.61.35.95.42.69.14 1.28.58 1.63 1.18.17.3.41.57.69.77.57.41.94 1.05 1.01 1.75.04.35.14.68.32.99.35.61.43 1.34.21 2-.11.33-.15.68-.11 1.03.08.7-.15 1.4-.62 1.92-.23.26-.41.57-.52.9-.22.67-.71 1.21-1.35 1.5-.32.14-.61.35-.84.61-.47.52-1.14.82-1.84.82-.35 0-.7.07-1.01.22-.64.29-1.37.29-2.02 0-.32-.14-.67-.22-1.01-.22-.7 0-1.37-.3-1.84-.82-.23-.26-.52-.47-.84-.61-.64-.28-1.13-.83-1.35-1.5-.11-.33-.28-.64-.52-.9-.47-.52-.7-1.22-.62-1.92.04-.35 0-.7-.11-1.03-.22-.67-.14-1.4.21-2 .18-.3.29-.64.32-.99.07-.7.44-1.33 1.01-1.75.28-.2.52-.47.69-.77.35-.61.94-1.04 1.63-1.18.34-.07.67-.22.95-.42.57-.41 1.28-.57 1.97-.42.35.07.7.07 1.04 0Z"/><path fill="#212121" d="M24.51 13.779a2.774 2.774 0 0 1-.442.656c-.259.293-.461.641-.585 1.012a2.815 2.815 0 0 1-1.518 1.687c-.36.158-.686.394-.944.686a2.795 2.795 0 0 1-2.07.922c-.306 0-.612.048-.897.148a3 3 0 0 1 .256 2.435 2.913 2.913 0 0 0-.134 1.255 2.987 2.987 0 0 1-.755 2.338c-.22.248-.401.533-.534.838a2.522 2.522 0 0 1-.367-.711c-.11-.33-.28-.64-.52-.9-.47-.52-.7-1.22-.62-1.92.04-.35 0-.7-.11-1.03-.22-.67-.14-1.4.21-2 .18-.3.29-.64.32-.99.07-.7.44-1.33 1.01-1.75.28-.2.52-.47.69-.77.35-.61.94-1.04 1.63-1.18.34-.07.67-.22.95-.42.57-.41 1.28-.57 1.97-.42.35.07.7.07 1.04 0a2.434 2.434 0 0 1 1.42.114Z"/><path fill="#6D4534" d="M19.17 3.985c-.57-.42-1.28-.57-1.97-.42-.34.07-.69.07-1.04 0-.69-.15-1.4.01-1.97.42-.28.2-.61.35-.95.42-.69.14-1.28.57-1.63 1.18-.17.3-.41.57-.69.77-.57.42-.94 1.05-1.01 1.75-.03.35-.14.69-.32.99-.35.6-.43 1.33-.21 2 .11.33.15.68.11 1.03-.066.58.08 1.162.401 1.64-.324.06-.658.057-.99-.01-.69-.15-1.4.01-1.97.42-.28.2-.61.35-.95.42-.69.14-1.28.57-1.63 1.18-.17.3-.41.57-.69.77-.57.42-.94 1.05-1.01 1.75-.03.35-.14.69-.32.99-.35.6-.43 1.33-.21 2 .11.33.15.68.11 1.03-.08.7.15 1.4.62 1.92.24.26.41.57.52.9.22.67.71 1.22 1.35 1.5.32.14.61.35.84.61.47.52 1.14.82 1.84.82.34 0 .69.08 1.01.22.65.29 1.38.29 2.02 0 .31-.15.66-.22 1.01-.22.7 0 1.37-.3 1.84-.82.23-.26.52-.47.84-.61.64-.29 1.13-.83 1.35-1.5.11-.33.29-.64.52-.9.47-.52.7-1.22.62-1.92-.04-.35 0-.7.11-1.03.22-.66.14-1.39-.21-2a2.507 2.507 0 0 1-.325-1.023 2.44 2.44 0 0 0 1.504-.167c.31-.15.66-.22 1.01-.22.7 0 1.37-.3 1.84-.82.23-.26.52-.47.84-.61.64-.29 1.13-.83 1.35-1.5.11-.33.29-.64.52-.9.47-.52.7-1.22.62-1.92-.04-.35 0-.7.11-1.03.22-.66.14-1.39-.21-2-.18-.31-.28-.64-.32-.99-.07-.7-.44-1.34-1.01-1.75-.28-.2-.52-.47-.69-.77-.35-.6-.94-1.04-1.63-1.18a2.39 2.39 0 0 1-.95-.42Z"/><path fill="#402A32" d="M16.186 18.262c.317.065.642.067.957.007a3.162 3.162 0 0 1-.058-.345 2.788 2.788 0 0 0-1.143-1.981 2.746 2.746 0 0 1-.782-.872 2.793 2.793 0 0 0-1.845-1.336 2.704 2.704 0 0 1-1.076-.476c-.645-.475-1.45-.645-2.23-.475a2.899 2.899 0 0 1-.494.058c.06.329.189.643.376.923l.05-.01c.69-.15 1.4 0 1.97.42.28.21.61.35.95.42.69.14 1.28.58 1.63 1.18.17.3.41.57.69.77.56.403.927 1.03 1.005 1.717Z"/><path fill="#C3EF3C" d="M8.27 15.345c.46-.1.93 0 1.31.28.19.14.4.23.63.28.46.1.85.38 1.08.79.12.2.27.38.46.51.38.27.62.69.67 1.16.02.23.1.45.21.66.23.4.29.89.14 1.33-.07.22-.1.45-.07.69.05.46-.1.93-.41 1.27-.16.17-.27.38-.34.6-.14.44-.47.81-.9.99-.21.09-.4.23-.56.4-.31.35-.76.55-1.22.54-.23 0-.46.05-.67.14-.43.19-.91.19-1.34 0-.21-.1-.44-.14-.67-.14-.47 0-.91-.2-1.22-.54-.15-.17-.34-.31-.56-.4a1.66 1.66 0 0 1-.9-.99c-.07-.22-.19-.42-.34-.6-.31-.35-.46-.81-.41-1.27.02-.23 0-.46-.07-.69-.15-.44-.09-.93.14-1.33.12-.2.19-.42.21-.66.05-.46.29-.89.67-1.16.19-.14.35-.31.46-.51.23-.4.63-.69 1.08-.79.23-.05.44-.14.63-.28.38-.28.85-.38 1.31-.28.22.05.46.05.68 0Z"/></svg>
